images/cta.svg

<svg width="24" height="24" viewBox="0 0 24 24" fill="none" xmlns="http://www.w3.org/2000/svg">
<path fill-rule="evenodd" clip-rule="evenodd" d="M12 24C18.6274 24 24 18.6274 24 12C24 5.37258 18.6274 0 12 0C5.37258 0 0 5.37258 0 12C0 18.6274 5.37258 24 12 24ZM6 8.58434C6.13008 7.82207 6.72672 7.04454 7.51726 6.21064C7.78801 5.92768 8.34317 5.92791 8.63806 6.22239L10.2912 7.87306C10.5641 8.1456 10.5643 8.69983 10.3738 9.06019L9.55692 10.1727C9.06904 10.8371 10.0811 11.8333 10.8942 12.6336C10.9729 12.7111 11.0498 12.7868 11.1233 12.8602C11.9573 13.6929 13.2135 14.9393 13.8098 14.4313L14.9271 13.6133C15.2917 13.4204 15.8469 13.4205 16.1331 13.7064L17.7928 15.3635C18.0681 15.6384 18.0682 16.1926 17.7982 16.4502C16.9573 17.2466 16.1747 17.848 15.4076 17.9783C13.7755 18.2256 11.5304 16.3149 9.59196 14.3793C7.64324 12.4335 6.02154 10.304 6 8.58434Z" fill="white"/>
</svg>

<svg width="24" height="24" fill="none" xmlns="http://www.w3.org/2000/svg"><path fill-rule="evenodd" clip-rule="evenodd" d="M12 24c6.627 0 12-5.373 12-12S18.627 0 12 0 0 5.373 0 12s5.373 12 12 12zM6 8.584c.13-.762.727-1.54 1.517-2.373.271-.283.826-.283 1.121.011l1.653 1.651c.273.273.273.827.083 1.187l-.817 1.113c-.488.664.524 1.66 1.337 2.46l.23.227c.833.833 2.09 2.08 2.686 1.571l1.117-.818c.365-.193.92-.192 1.206.093l1.66 1.658c.275.274.275.829.005 1.086-.84.797-1.623 1.398-2.39 1.528-1.633.248-3.878-1.663-5.816-3.599C7.643 12.434 6.022 10.304 6 8.584z" fill="#fff"/></svg>
